assets/src/edit-story/icons/info.svg

<svg fill="none" height="16" viewBox="0 0 16 16" width="16" xmlns="http://www.w3.org/2000/svg"><g fill="#fff"><path d="m7.33399 4.66659h1.33333v1.33333h-1.33333z"/><path d="m7.33399 7.33325h1.33333v4.00005h-1.33333z"/><path clip-rule="evenodd" d="m1.33398 7.99992c0-3.68 2.98666-6.66667 6.66667-6.66667 3.68005 0 6.66665 2.98667 6.66665 6.66667 0 3.67998-2.9866 6.66668-6.66665 6.66668-3.68001 0-6.66667-2.9867-6.66667-6.66668zm1.33334 0c0 2.93998 2.39331 5.33338 5.33333 5.33338 2.94005 0 5.33335-2.3934 5.33335-5.33338 0-2.94-2.3933-5.33333-5.33335-5.33333-2.94002 0-5.33333 2.39333-5.33333 5.33333z" fill-rule="evenodd"/></g></svg>

<svg width="16" height="16" viewBox="0 0 16 16" fill="none" xmlns="http://www.w3.org/2000/svg">
<path d="M7.33399 4.66659H8.66732V5.99992H7.33399V4.66659Z" fill="white"/>
<path d="M7.33399 7.33325H8.66732V11.3333H7.33399V7.33325Z" fill="white"/>
<path fill-rule="evenodd" clip-rule="evenodd" d="M1.33398 7.99992C1.33398 4.31992 4.32064 1.33325 8.00065 1.33325C11.6807 1.33325 14.6673 4.31992 14.6673 7.99992C14.6673 11.6799 11.6807 14.6666 8.00065 14.6666C4.32064 14.6666 1.33398 11.6799 1.33398 7.99992ZM2.66732 7.99992C2.66732 10.9399 5.06063 13.3333 8.00065 13.3333C10.9407 13.3333 13.334 10.9399 13.334 7.99992C13.334 5.05992 10.9407 2.66659 8.00065 2.66659C5.06063 2.66659 2.66732 5.05992 2.66732 7.99992Z" fill="white"/>
</svg>
